X:4
T:Peerie Wee Freilachs
Z:Jack Campin, http://www.campin.me.uk
F:http://www.campin.me.uk/Music/EdinburghKlezmer.abc
M:2/4
L:1/8
Q:1/4=140
K:DPhr % freygish
d/d/\
 dd'ab    |ga ^fg    | ab    a>g    |(^f/g/)f/g/ a2 |
 dd'ab    |ga ^fg    | ab    a>g    |(^f/g/)f/e/ d2:|
^f3 (f/a/)|g3  (g/b/)| a3    (a/c'/)|  ba        bg |
^f3 (f/a/)|g3  (g/b/)|(a>g) ^fe     |  d4          :|
 dd'ab    |ga ^fg    | ab    a>g    |(^f/g/)f/g/ a2 |
 dd'ab    |ga ^fg    | ab    a>g    |(^f/g/)f/e/ d2:|
